images/hero-bg-img.svg

<svg width="1263" height="1035" fill="none" xmlns="http://www.w3.org/2000/svg"><g filter="url(#a)"><path fill-rule="evenodd" clip-rule="evenodd" d="M118.207 503.399c-36.24 0-54.388 43.816-28.762 69.44L223.73 707.113a100.001 100.001 0 0 0 70.708 29.286h70.693c26.52 0 51.954 10.535 70.708 29.287l161.039 161.027A100.002 100.002 0 0 0 667.585 956h388.855c72.53 0 108.86-87.698 57.56-138.985l-86.39-86.385c-19.41-19.41-5.66-52.6 21.79-52.6s41.2-33.189 21.79-52.599l-195.339-195.32a100.002 100.002 0 0 0-70.708-29.287H570.701a99.998 99.998 0 0 1-70.708-29.287l-35.253-35.25A100.002 100.002 0 0 0 394.032 307H158.88c-51.248 0-76.913 61.963-40.673 98.199l28.761 28.76c25.627 25.624 7.479 69.44-28.761 69.44Z" fill="#2D314D"/></g><path fill-rule="evenodd" clip-rule="evenodd" d="M256.207 196.399c-36.24 0-54.388 43.816-28.762 69.44l134.284 134.274a100.001 100.001 0 0 0 70.708 29.286h70.693c26.52 0 51.954 10.535 70.708 29.287l161.039 161.027A100.002 100.002 0 0 0 805.585 649h388.855c72.53 0 108.86-87.698 57.56-138.985l-86.39-86.385c-19.41-19.41-5.66-52.6 21.79-52.6s41.2-33.189 21.79-52.599l-195.34-195.32a99.998 99.998 0 0 0-70.707-29.287H708.701a99.998 99.998 0 0 1-70.708-29.287l-35.253-35.25A100.002 100.002 0 0 0 532.032 0H296.88c-51.248 0-76.913 61.963-40.673 98.2l28.761 28.759c25.627 25.624 7.479 69.44-28.761 69.44Z" fill="url(#b)"/><defs><linearGradient id="b" x1="-455.913" y1="323.138" x2="76.834" y2="1335.28" gradientUnits="userSpaceOnUse"><stop stop-color="#33D35E"/><stop offset="1" stop-color="#2AB6D9"/></linearGradient><filter id="a" x=".449" y="232" width="1214.57" height="803" filterUnits="userSpaceOnUse" color-interpolation-filters="sRGB"><feFlood flood-opacity="0" result="BackgroundImageFix"/><feColorMatrix in="SourceAlpha" values="0 0 0 0 0 0 0 0 0 0 0 0 0 0 0 0 0 0 127 0" result="hardAlpha"/><feOffset dy="2"/><feGaussianBlur stdDeviation="38.5"/><feColorMatrix values="0 0 0 0 0 0 0 0 0 0 0 0 0 0 0 0 0 0 0.0240111 0"/><feBlend in2="BackgroundImageFix" result="effect1_dropShadow_1757_2"/><feBlend in="SourceGraphic" in2="effect1_dropShadow_1757_2" result="shape"/></filter></defs></svg>

<svg width="1263" height="1035" viewBox="0 0 1263 1035" fill="none" xmlns="http://www.w3.org/2000/svg">
<g filter="url(#filter0_d_1757_2)">
<path fill-rule="evenodd" clip-rule="evenodd" d="M118.207 503.399C81.9673 503.399 63.8192 547.215 89.4454 572.839L223.729 707.113C242.483 725.865 267.917 736.399 294.437 736.399H365.13C391.65 736.399 417.084 746.934 435.838 765.686L596.877 926.713C615.631 945.465 641.065 956 667.585 956H1056.44C1128.97 956 1165.3 868.302 1114 817.015L1027.61 730.63C1008.2 711.22 1021.95 678.03 1049.4 678.03C1076.85 678.03 1090.6 644.841 1071.19 625.431L875.851 430.111C857.097 411.359 831.663 400.824 805.143 400.824H570.701C544.18 400.824 518.746 390.289 499.993 371.537L464.74 336.287C445.986 317.535 420.552 307 394.032 307H158.88C107.632 307 81.9673 368.963 118.207 405.199L146.968 433.959C172.595 459.583 154.447 503.399 118.207 503.399Z" fill="#2D314D"/>
</g>
<path fill-rule="evenodd" clip-rule="evenodd" d="M256.207 196.399C219.967 196.399 201.819 240.215 227.445 265.839L361.729 400.113C380.483 418.865 405.917 429.399 432.437 429.399H503.13C529.65 429.399 555.084 439.934 573.838 458.686L734.877 619.713C753.631 638.465 779.065 649 805.585 649H1194.44C1266.97 649 1303.3 561.302 1252 510.015L1165.61 423.63C1146.2 404.22 1159.95 371.03 1187.4 371.03C1214.85 371.03 1228.6 337.841 1209.19 318.431L1013.85 123.111C995.097 104.359 969.663 93.8239 943.143 93.8239H708.701C682.18 93.8239 656.746 83.2892 637.993 64.5372L602.74 29.2866C583.986 10.5346 558.552 0 532.032 0H296.88C245.632 0 219.967 61.9626 256.207 98.1995L284.968 126.959C310.595 152.583 292.447 196.399 256.207 196.399Z" fill="url(#paint0_linear_1757_2)"/>
<defs>
<filter id="filter0_d_1757_2" x="0.448975" y="232" width="1214.57" height="803" filterUnits="userSpaceOnUse" color-interpolation-filters="sRGB">
<feFlood flood-opacity="0" result="BackgroundImageFix"/>
<feColorMatrix in="SourceAlpha" type="matrix" values="0 0 0 0 0 0 0 0 0 0 0 0 0 0 0 0 0 0 127 0" result="hardAlpha"/>
<feOffset dy="2"/>
<feGaussianBlur stdDeviation="38.5"/>
<feColorMatrix type="matrix" values="0 0 0 0 0 0 0 0 0 0 0 0 0 0 0 0 0 0 0.0240111 0"/>
<feBlend mode="normal" in2="BackgroundImageFix" result="effect1_dropShadow_1757_2"/>
<feBlend mode="normal" in="SourceGraphic" in2="effect1_dropShadow_1757_2" result="shape"/>
</filter>
<linearGradient id="paint0_linear_1757_2" x1="-455.913" y1="323.138" x2="76.8341" y2="1335.28" gradientUnits="userSpaceOnUse">
<stop stop-color="#33D35E"/>
<stop offset="1" stop-color="#2AB6D9"/>
</linearGradient>
</defs>
</svg>
